X:26
T:Ay as she piss'd she padled it
Z:Jack Campin <http://www.campin.me.uk/>
S:McFarlan MS II #12
M:C|
L:1/8
K:D Dorian
D|G2G2 ABcA|TB3A G2c2|TA3G  F2f2|TA3G F2A2|
  G2G2 ABcA|TB3A G2c2| A2F2 ABcA| G4  d3 :|
c|TB2 d4 e^f|g2d2 BcdB| g2d2 BcdB|f2c2 ABcA|
  TB2 d4e ^f|g2d2 BcdB|TA2F2 ABcA|G4   d3 :|
D|GFGA BABc| dc```````BA        GABG|AcFc AFcA|fedc ABcA|
  GFGA BABc|(d/c/B/c/ d/c/B/A/) GABG|AGAB cAdF|G4   d3 :|
(d/4e/4f/2)| g>dTB>d g>dTB>d|(g/^f/e/f/ g/f/e/d/) Bd g(d/e/)|f>cA>c f>c`````A>c|fedc Acfa|
            TBdga    gdef   | gfed                Bd`gB     |cB`c(e d)e/^f/ gA |G4   d3 :|
d/c/|BGB(d d)e/^f/ gc|Bd2B GA_Bc| A   F2         A      f(e/d/) (c/d/c/_B/)|TA3G FGAc|
     BGB(d d)B2     g|Bd2B GA`BG|(A/G/A/B/) (c/d/e/^f/) g(f/e/) (d/c/B/A/) | G4  d3 :|
e/^f/|gG`````````dG (B/A/B/c/ d)G|Bd2    e/^f/ gdBG|fFAF (A/G/A/_B/ c)F|Ac2d/e/ fcAF|
      g/^f/e/d/ TB(d d)e/^f/  gd |eg d/c/d/c/ TBdgB|cBcA (d/c/d/e/  d)D|G4      d3 :|
